Flat-Remix-Blue-Light/actions/scalable/debug-run.svg

<svg xmlns="http://www.w3.org/2000/svg" width="24" height="24" viewBox="0 0 24 24">
 <defs>
  <style id="current-color-scheme" type="text/css">
   .ColorScheme-Text { color:#31363b; } .ColorScheme-Highlight { color:#3daee9; }
  </style>
 </defs>
 <path style="fill:currentColor" class="ColorScheme-Text" d="m3 1c-2.25 0-2 2-2 2v12h7v-2h-5v-8h10v3h2v-5c0-2-2-2-2-2zm9 8v2h-3v2h3v2l3-3z" transform="translate(4 4)"/>
</svg>

<svg xmlns="http://www.w3.org/2000/svg" width="24" height="24" version="1.1">
 <defs>
  <style id="current-color-scheme" type="text/css">
   .ColorScheme-Text { color:#000000; } .ColorScheme-Highlight { color:#367bf0; }
  </style>
 </defs>
 <g transform="translate(4,4)">
  <path style="fill:currentColor" class="ColorScheme-Text" d="M 3,1 C 1,1 1,3 1,3 V 15 H 8 V 13 H 3 V 5 H 13 V 8 H 15 V 3 C 15,1 13,1 13,1 Z M 12,9 V 11 H 9 V 13 H 12 V 15 L 15,12 Z"/>
 </g>
</svg>
